X: 1658
T: Sakız Hanım
C: Bahadır Akkuzu
O: Turkey
F: http://compmusic.upf.edu/node/140
N: mahur--sarki--curcuna--sakiz_hanim--bahadir_akkuzu
N: makam= mahur
N: form= sarki
N: usul= curcuna = 10/8
M: 10/8
L: 1/16
K: C ^9/8f   
Q: 1/4=156
%%MIDI tuningsystem comma53
d'14c'2 b2a2  | f14g2 f2e2  | d14e2 d2c2  | e16-e4  | \
w:  ARANAĞME  |   |   |   | 
d'14c'2 b2a2  | f14g2 f2e2  | 
w:  ARANAĞME  |   | 
d14e2 d2c2  | e14d2 e2f2  | G2B2 d2g2 d2G2 B2d2 z4  | \
w:   |   |   | 
F2A2 c2f2 c2F2 c2e2 z4  | 
w:   | 
G2B2 d2g2 d2G2 B2d2 z4  | D2A2 c2f2 e2F2 c2d2 z4  | \
w:   |   | 
G2B2 d2g2 d2G2 B2d2 z4  | 
w:   | 
D2A2 c2f2 c2F2 c2d2 z4  | b14z2 a2g2  | \
w:   |   | 
f8-f2z4d6  | g14b4c'2  | d'8-d'2f4a6  | 
w:   |   |   | 
b8-b2b4z2 a2b2  | a8-a2f4d'6  | c'4 e'16  | d'16-d'4  | \
w:   |   |   |   | 
z4 c'4 b2c'2 b2c'4d'2  | 
w:   | 
b4 b6b4g2 a2b2  | z4 c2c4c4c2 B4  | A16-A4  | \
w:   |  Yaz_ ak şam la rın  |  da   | 
z2A2 A2A4A4B4A2  | 
w:  a çı lır dı  per de  | 
G16-G4  | z4 c4 B2c4cB B4  | A8-A2z2 c2d2 e2g2  | \
w:  ler    |  Yor gun  el le rin  |  den  SAZ  | 
z2A2 A2A2 A4 G2B4A2  | 
w:  dö kü lür dü  *  nağ me  | 
G14z6  | b4 a2g2 d2c2 B2A2 G4  | =f4 e2d2 c2B2 A2G6  | \
w:  ler    |  SAZ  |   | 
=f4 e2d2 c2B2 A2G6  | 
w:   | 
|


